svg/bot2.svg

<?xml version="1.0" encoding="UTF-8"?>
<svg xmlns="http://www.w3.org/2000/svg" xmlns:xlink="http://www.w3.org/1999/xlink" width="32" height="32" viewBox="0 0 32 32">
<path fill-rule="nonzero" fill="rgb(0%, 0%, 0%)" fill-opacity="1" d="M 27.519531 16.640625 L 27.519531 14.101562 C 27.515625 11.265625 25.21875 8.964844 22.378906 8.960938 L 16.640625 8.960938 L 16.640625 6.949219 C 17.769531 6.660156 18.554688 5.644531 18.558594 4.480469 C 18.558594 3.066406 17.414062 1.921875 16 1.921875 C 15.320312 1.921875 14.671875 2.191406 14.191406 2.671875 C 13.710938 3.148438 13.441406 3.800781 13.441406 4.480469 C 13.441406 5.671875 14.261719 6.664062 15.359375 6.949219 L 15.359375 8.960938 L 9.621094 8.960938 C 6.78125 8.964844 4.484375 11.265625 4.480469 14.101562 L 4.480469 16.640625 L 1.28125 16.640625 L 1.28125 24.320312 L 4.480469 24.320312 L 4.480469 30.078125 L 27.519531 30.078125 L 27.519531 24.320312 L 30.71875 24.320312 L 30.71875 16.640625 Z M 17.28125 24.320312 L 17.28125 28.800781 L 14.71875 28.800781 L 14.71875 24.320312 Z M 9.601562 16.960938 C 9.582031 16.148438 10.003906 15.390625 10.707031 14.980469 C 11.40625 14.570312 12.273438 14.570312 12.972656 14.980469 C 13.671875 15.390625 14.09375 16.148438 14.078125 16.960938 C 14.078125 18.199219 13.078125 19.199219 11.839844 19.199219 C 10.601562 19.199219 9.601562 18.199219 9.601562 16.960938 M 10.878906 24.320312 L 13.441406 24.320312 L 13.441406 28.800781 L 10.878906 28.800781 Z M 21.121094 28.800781 L 18.558594 28.800781 L 18.558594 24.320312 L 21.121094 24.320312 Z M 20.160156 19.199219 C 18.921875 19.199219 17.921875 18.199219 17.921875 16.960938 C 17.902344 16.148438 18.324219 15.390625 19.023438 14.980469 C 19.726562 14.570312 20.59375 14.570312 21.292969 14.980469 C 21.992188 15.390625 22.414062 16.148438 22.398438 16.960938 C 22.398438 18.199219 21.398438 19.199219 20.160156 19.199219 M 20.160156 19.199219 "/>
</svg>

<svg role="img" viewBox="0 0 32 32" height="32" width="32" xmlns="http://www.w3.org/2000/svg"><path d="M27.52 16.64v-2.538a5.147 5.147 0 0 0-5.141-5.141H16.64V6.949a2.552 2.552 0 0 0 1.918-2.469A2.557 2.557 0 0 0 16 1.922a2.557 2.557 0 0 0-2.559 2.558c0 1.192.82 2.184 1.918 2.47v2.01H9.621a5.147 5.147 0 0 0-5.14 5.142v2.539h-3.2v7.68h3.2v5.757H27.52V24.32h3.199v-7.68Zm-10.24 7.68v4.48h-2.56v-4.48ZM9.6 16.96a2.239 2.239 0 1 1 4.477 0c0 1.24-1 2.24-2.238 2.24s-2.238-1-2.238-2.24m1.278 7.36h2.562v4.48H10.88ZM21.12 28.8h-2.56v-4.48h2.562Zm-.96-9.6c-1.24 0-2.24-1-2.24-2.24a2.239 2.239 0 1 1 4.477 0c0 1.24-1 2.24-2.238 2.24m0 0"/></svg>
